src/topics/icons/grav.svg

<svg height="256" preserveAspectRatio="xMidYMid" viewBox="0 0 256 256" width="256" xmlns="http://www.w3.org/2000/svg"><path d="m136.23263 94.9363384c1.497883-1.4978134 1.497883-3.9253899 0-5.4219603-1.498435-1.4978134-3.923992-1.4978134-5.421875 0-1.498573 1.4965704-1.498573 3.9241469 0 5.4219603 1.497883 1.4964323 3.92344 1.4964323 5.421875 0zm-13.699757 2.8646976c-1.498573 1.4964324-1.498573 3.924147 0 5.42196 1.495813 1.496433 3.92344 1.496433 5.421875 0 1.495813-1.497813 1.495813-3.9255276 0-5.42196-1.498435-1.4978134-3.926062-1.4978134-5.421875 0zm23.766042 2.0150909c-2.343469-2.3441574-6.142189-2.3420857-8.484278 0l-4.990046 4.9899491c-2.344158 2.344158-2.344158 6.1429 0 8.484295l5.478579 5.480519c2.34333 2.344158 6.142189 2.342086 8.484278 0l4.990045-4.989949c2.343469-2.344157 2.343469-6.1429 0-8.486366zm48.112844-18.0021882c6.331477-12.0579159-2.625054-19.1010227-8.781453-24.8820715-9.86158-9.2698699-19.697498-13.2774358-30.93155-.4419551-11.226602 12.8361712-4.093827 27.7227379 6.1753 35.0703794 10.273818 7.3475033 27.197259 2.3082485 33.537703-9.7463528zm-17.010496-4.9447869c-3.956414-4.7421781 3.439736-13.3517395 8.080041-8.2106969 8.547051 9.4719263-4.116729 12.9527369-8.080041 8.2106969zm-49.398849-76.8691518c-70.6936678 0-128.002414 57.3084547-128.002414 127.99558 0 70.692513 57.3087462 128.00442 128.002414 128.00442 70.689392 0 127.997586-57.311907 127.997586-128.00442 0-70.6871253-57.308194-127.99558-127.997586-127.99558zm69.216618 148.973807c-13.347809-8.821147-20.97505-16.274581-27.619154-29.638337-4.543454 9.156067-15.152112 22.771184-33.047239 33.481551-8.933629 27.792208-51.4313114 80.980536-65.1852891 73.440921-4.0724423-2.230216-4.8458724-5.167975-3.9261997-8.198543.9864477-7.597623 16.7031113-25.059268 16.7031113-25.059268s.332219 3.663945 5.3600669 11.382829c-6.6409312-20.616376 10.9726096-46.054344 15.6385756-54.713764 7.331996-2.336699 7.863023-11.750757 7.863023-11.750757.468942-14.551648-6.031128-25.08689-12.33032-31.387512 4.525794 5.523748 5.990703 13.871174 6.205652 21.515893v.042538c.022902.863746.022902 1.711333.019453 2.556296-.214949 6.328106-2.129071 15.069701-6.225105 15.069701l.012141.055245c-4.2110972-.180511-9.4100213.718315-14.055155 2.170966l-10.2691271 2.453956s5.4765091-.250672 8.4337826 2.304381c-3.2934935 5.363263-10.6134871 12.018831-18.7778246 15.800033-11.8787613 5.50897-15.292836-5.452207-9.2617088-12.580804 1.4809132-1.742408 2.9767265-3.211218 4.3910028-4.414579-.9102912-.941917-1.4843623-2.203284-1.6352957-3.804129-.0013797-.008148-.0074501-.016159-.0093816-.024307-.8280642-3.637014-.371263-8.35889 4.7750965-15.863564 1.0161101-1.58869 2.2342005-3.217295 3.6935912-4.87145.046632-.056625.085676-.109107.13286-.164352.0626359-.076099.132722-.148193.1974275-.222358.0369745-.041158.0720175-.082177.1110616-.125267.367262-.417786.758116-.826042 1.1758732-1.220211 6.1326692-6.281701 15.820413-12.814625 31.0856564-18.677988 17.802828-26.1676088 24.32235-31.0760726 24.32235-31.0760726 1.970826-2.0153152 5.415805-4.5210624 6.681907-5.1598256-9.29689-16.1545635-11.174038-38.9278187-8.738271-45.0646414-.197428.332295-.378713.6717718-.529647 1.0235404.902841-2.1014965 1.507955-2.7772734 2.445839-3.8829898 2.538826-3.0037754 11.144375-4.577688 14.234371 1.7854986 1.646057 3.3924196 1.956753 7.7868343 1.902119 11.0817476-6.814629-.3552214-12.996 7.4256742-12.996 7.4256742s5.644275-2.66347 12.656469-2.7105658c0 0 1.869008 1.6251517 4.201025 4.6774041-3.14863 5.9123923-8.324652 18.4372614-4.576427 31.5861159.621255 2.5913761 1.560519 4.8182773 2.726872 6.7128835.044425.0816236.081537.1637996.126652.2480473.093678.1226426.177836.2242922.265444.3375432 6.197513 9.3305006 17.556837 10.4219916 17.556837 10.4219916-5.347788-2.6681657-9.703196-6.917702-12.539198-12.0700697-1.474153-2.7557281-2.376994-5.0823455-2.931613-6.9177021-3.007768-11.617342 1.420347-18.3990047 3.955173-22.9456177 5.83232-9.0469588 16.457258-14.5234729 27.877149-13.2190149 16.02736 1.8287273 27.538997 16.3048282 25.706964 32.3280481-1.117101 9.7894434-6.956871 17.8868893-14.980208 22.2934577 1.929712 5.2225281-.132722 11.5546394-.132722 11.5546394 4.859255 6.112515 5.073514 9.636417 4.905749 12.909647-6.175853-1.038871-12.175938 3.129042-12.175938 3.129042s11.914495-2.843981 18.836322 3.329855c4.501512 4.841756 7.5039 9.217388 9.292889 12.44877 2.562418 4.608763 14.460771 4.937467 13.105681 13.226335-1.355641 8.276714-10.430132 8.354884-24.656363-1.030861z" fill="#221e1f"/></svg>

<?xml version="1.0" encoding="UTF-8" standalone="no"?>
<svg width="256px" height="256px" viewBox="0 0 256 256" version="1.1" xmlns="http://www.w3.org/2000/svg" xmlns:xlink="http://www.w3.org/1999/xlink" preserveAspectRatio="xMidYMid">
    <g>
        <path d="M136.23263,94.9363384 C137.730513,93.438525 137.730513,91.0109485 136.23263,89.5143781 C134.734195,88.0165647 132.308638,88.0165647 130.810755,89.5143781 C129.312182,91.0109485 129.312182,93.438525 130.810755,94.9363384 C132.308638,96.4327707 134.734195,96.4327707 136.23263,94.9363384 Z M122.532873,97.801036 C121.0343,99.2974684 121.0343,101.725183 122.532873,103.222996 C124.028686,104.719429 126.456313,104.719429 127.954748,103.222996 C129.450561,101.725183 129.450561,99.2974684 127.954748,97.801036 C126.456313,96.3032226 124.028686,96.3032226 122.532873,97.801036 Z M146.298915,99.8161269 C143.955446,97.4719695 140.156726,97.4740412 137.814637,99.8161269 L132.824591,104.806076 C130.480433,107.150234 130.480433,110.948976 132.824591,113.290371 L138.30317,118.77089 C140.6465,121.115048 144.445359,121.112976 146.787448,118.77089 L151.777493,113.780941 C154.120962,111.436784 154.120962,107.638041 151.777493,105.294575 L146.298915,99.8161269 Z M194.411759,81.8139387 C200.743236,69.7560228 191.786705,62.712916 185.630306,56.9318672 C175.768726,47.6619973 165.932808,43.6544314 154.698756,56.4899121 C143.472154,69.3260833 150.604929,84.21265 160.874056,91.5602915 C171.147874,98.9077948 188.071315,93.86854 194.411759,81.8139387 Z M177.401263,76.8691518 C173.444849,72.1269737 180.840999,63.5174123 185.481304,68.6584549 C194.028355,78.1303812 181.364575,81.6111918 177.401263,76.8691518 L177.401263,76.8691518 Z M128.002414,-1.42108547e-14 C57.3087462,-1.42108547e-14 0,57.3084547 0,127.99558 C0,198.688093 57.3087462,256 128.002414,256 C198.691806,256 256,198.688093 256,127.99558 C256,57.3084547 198.691806,-1.42108547e-14 128.002414,-1.42108547e-14 L128.002414,-1.42108547e-14 Z M197.219032,148.973807 C183.871223,140.15266 176.243982,132.699226 169.599878,119.33547 C165.056424,128.491537 154.447766,142.106654 136.552639,152.817021 C127.61901,180.609229 85.1213276,233.797557 71.3673499,226.257942 C67.2949076,224.027726 66.5214775,221.089967 67.4411502,218.059399 C68.4275979,210.461776 84.1442615,193.000131 84.1442615,193.000131 C84.1442615,193.000131 84.4764805,196.664076 89.5043284,204.38296 C82.8633972,183.766584 100.476938,158.328616 105.142904,149.669196 C112.4749,147.332497 113.005927,137.918439 113.005927,137.918439 C113.474869,123.366791 106.974799,112.831549 100.675607,106.530927 C105.201401,112.054675 106.66631,120.402101 106.881259,128.04682 L106.881259,128.089358 C106.904161,128.953104 106.904161,129.800691 106.900712,130.645654 C106.685763,136.97376 104.771641,145.715355 100.675607,145.715355 L100.687748,145.7706 C96.4766508,145.590089 91.2777267,146.488915 86.632593,147.941566 L76.3634659,150.395522 C76.3634659,150.395522 81.839975,150.14485 84.7972485,152.699903 C81.503755,158.063166 74.1837614,164.718734 66.0194239,168.499936 C54.1406626,174.008906 50.7265879,163.047729 56.7577151,155.919132 C58.2386283,154.176724 59.7344416,152.707914 61.1487179,151.504553 C60.2384267,150.562636 59.6643556,149.301269 59.5134222,147.700424 C59.5120425,147.692276 59.5059721,147.684265 59.5040406,147.676117 C58.6759764,144.039103 59.1327776,139.317227 64.2791371,131.812553 C65.2952472,130.223863 66.5133376,128.595258 67.9727283,126.941103 C68.0193603,126.884478 68.0584043,126.831996 68.1055883,126.776751 C68.1682242,126.700652 68.2383103,126.628558 68.3030158,126.554393 C68.3399903,126.513235 68.3750333,126.472216 68.4140774,126.429126 C68.7813394,126.01134 69.1721934,125.603084 69.5899506,125.208915 C75.7226198,118.927214 85.4103636,112.39429 100.675607,106.530927 C118.478435,80.3633182 124.997957,75.4548544 124.997957,75.4548544 C126.968783,73.4395392 130.413762,70.933792 131.679864,70.2950288 C122.382974,54.1404653 120.505826,31.3672101 122.941593,25.2303874 C122.744165,25.5626824 122.56288,25.9021592 122.411946,26.2539278 C123.314787,24.1524313 123.919901,23.4766544 124.857785,22.370938 C127.396611,19.3671626 136.00216,17.79325 139.092156,24.1564366 C140.738213,27.5488562 141.048909,31.9432709 140.994275,35.2381842 C134.179646,34.8829628 127.998275,42.6638584 127.998275,42.6638584 C127.998275,42.6638584 133.64255,40.0003884 140.654744,39.9532926 C140.654744,39.9532926 142.523752,41.5784443 144.855769,44.6306967 C141.707139,50.543089 136.531117,63.0679581 140.279342,76.2168126 C140.900597,78.8081887 141.839861,81.0350899 143.006214,82.9296961 C143.050639,83.0113197 143.087751,83.0934957 143.132866,83.1777434 C143.226544,83.300386 143.310702,83.4020356 143.39831,83.5152866 C149.595823,92.8457872 160.955147,93.9372782 160.955147,93.9372782 C155.607359,91.2691125 151.251951,87.0195762 148.415949,81.8672085 C146.941796,79.1114804 146.038955,76.784863 145.484336,74.9495064 C142.476568,63.3321644 146.904683,56.5505017 149.439509,52.0038887 C155.271829,42.9569299 165.896767,37.4804158 177.316658,38.7848738 C193.344018,40.6136011 204.855655,55.089702 203.023622,71.1129219 C201.906521,80.9023653 196.066751,88.9998112 188.043414,93.4063796 C189.973126,98.6289077 187.910692,104.961019 187.910692,104.961019 C192.769947,111.073534 192.984206,114.597436 192.816441,117.870666 C186.640588,116.831795 180.640503,120.999708 180.640503,120.999708 C180.640503,120.999708 192.554998,118.155727 199.476825,124.329563 C203.978337,129.171319 206.980725,133.546951 208.769714,136.778333 C211.332132,141.387096 223.230485,141.7158 221.875395,150.004668 C220.519754,158.281382 211.445263,158.359552 197.219032,148.973807 L197.219032,148.973807 Z" fill="#221E1F"></path>
    </g>
</svg>
